svgs/lotus_lantern.svg

<svg width="192" height="192" viewBox="0 0 192 192" fill="none" xmlns="http://www.w3.org/2000/svg">
<path d="M107.95 97.6607C116.941 67.5376 106.892 46.3986 95.7856 39C85.7369 46.3986 75.1593 69.123 83.6214 97.6607M126.439 106.084C142.532 85.9454 141.39 66.7935 135.222 57.7613C125.31 60.3015 110.285 74.3289 107.947 98.6178M139.426 120.56C163.096 110.328 171.086 92.8824 169.884 82.0139C159.938 79.6068 140.082 84.944 126.605 105.293M65.3117 103.777C51.1173 82.2605 32.5361 77.4268 22.0332 80.4977C21.3879 90.7025 30.0961 109.315 52.4913 119.044M83.6922 96.9768C81.2683 71.3205 67.133 58.336 56.4168 56.1204C51.0525 64.8279 49.9965 85.3473 65.1996 104.443" stroke="black" stroke-width="12" stroke-linecap="round" stroke-linejoin="round"/>
<path d="M81.62 151.693L112.653 118L129.5 135.733H63L81.62 118L112.653 151.693" stroke="black" stroke-width="12" stroke-linecap="round" stroke-linejoin="round"/>
</svg>

<svg width="192" height="192" viewBox="0 0 192 192" fill="none" xmlns="http://www.w3.org/2000/svg"><path d="M107.95 97.66C116.941 67.539 106.892 46.4 95.786 39c-10.05 7.399-20.627 30.123-12.165 58.66m42.818 8.424c16.093-20.139 14.951-39.29 8.783-48.323-9.912 2.54-24.937 16.568-27.275 40.857m31.479 21.942c23.67-10.232 31.66-27.678 30.458-38.546-9.946-2.407-29.802 2.93-43.279 23.279m-61.293-1.516c-14.195-21.517-32.776-26.35-43.279-23.28-.645 10.206 8.063 28.818 30.458 38.547m31.201-22.067C81.268 71.32 67.133 58.336 56.417 56.12c-5.364 8.708-6.42 29.227 8.783 48.323M81.62 151.693 112.653 118l16.847 17.733H63L81.62 118l31.033 33.693" stroke="#000" stroke-width="12" stroke-linecap="round" stroke-linejoin="round"/></svg>
